X:19
T: GOTT SEI MIT DIR MEIN SACHSENLAND
N: B0022
O: Europa, Mitteleuropa, Deutschland, Sachsen
R: politisch, national, Vaterlands - Lied
M: 4/4
L: 1/16
K: Bb
FB3c | d6d2c3Bc3d | B8z4
d4 | c3f=e3dc3BG3A | B8z3
Gc3d | e6e2d3cd3e | c8z3
ed3c | B8d8 | c8z4
F4 | c6B2A3Bc3d | e8z3
FF3F | d6c2B3cd3e | c8z3
FD3F | B8z3BF3B | d8z3
FB3d | f6d2f3ed3c | B8z4
F4 | c6B2A3Bc3d | e8z3
FF3F | d6c2B3cd3e | c8z3
FD3F | B8z3BF3B | d8z3
FB3d | f6d2f3ed3c | B8z3

